X: 914
T: Gözümden Gönlümden Hayâli Gitmez
C: Dede Efendi
O: Turkey
F: http://compmusic.upf.edu/node/140
N: sedaraban--sarki--duyek--gozumden_gonlumden--dede_efendi
N: makam= sedaraban
N: form= sarki
N: usul= duyek = 8/4
M: 8/4
L: 1/16
K: C _7/8B _7/8e ^f ^c
Q: 1/4=120
%%MIDI tuningsystem comma53
c2 d4 f2 fe ed d2 c2  | d2 ed f2 gf fe ed d4  | \
w:  Gö züm *  den  *  *  *  gön  |  lüm *  *  den  *  *  ha *  *  *  ya  | 
f2 g4 a_b ag fe dc de  | 
w:  li  *  *  *  git  | 
f2 g2 a2 gf fe ed d4  | c2 d4 f2 fe ed d2 c2  | \
w:  mez_ *  *  a *  man_ *  a_ *  man_  |  Gö züm *  den  *  *  *  gön  | 
d2 ed f2 gf fe ed d4  | 
w:  lüm *  *  den  *  *  ha *  *  *  ya  | 
f2 g4 a_b ag fe dc de  | f2 g2 a2 gf fe ed d4  | 
w:  li  *  *  *  git  |  mez_ *  *  a *  man_ *  a_ *  man_  | 
c2 d4 cd ee dc BA G2  | A_1/4B =c4 _BA AG2B AG FE  | 
w:  Ay lar  *  *  ge *  *  *  çer   |  ha *  ber  *  *  ge *  *  lir   | 
D2 FG A_B AG F3G FE ED  | D3E F2 G2 A2 B2 c2 d2  | 
w:  *  yâr  *  *  *  *  *  *  *  gel  |  mez   SAZ  | 
c2 d4 cd ee dc BA G2  | A_1/4B =c4 _BA AG2B AG FE  | 
w:  Ay lar  *  *  ge *  *  *  çer   |  ha *  ber  *  *  ge *  *  lir   | 
D2 FG A_B AG F3G FE ED  | D6 a_b ag fg a=c' ba  | 
w:  *  yâr  *  *  *  *  *  *  *  gel  |  mez   SAZ  | 
a4 f2 g2 a4 a4  | _b3/2a/ ga g2 ab ag fe d4  | \
w:  *  Çok  za man  sab  |  ret *  *  *  *  *  *  tim   | 
a3g g3f f3e fe ed  | 
w:  hic *  ran  *  tü *  ken  | 
dc de fg a_b ag fg a=c' ba  | a4 f2 g2 a4 a4  | 
w:  mez   SAZ  |  *  Çok  za man  sab  | 
_b3/2a/ ga g2 ab ag fe d4  | a3g g3f f3e fe ed  | 
w:  ret *  *  *  *  *  *  tim   |  hic *  ran  *  tü *  ken  | 
d6 fe dc Bc d4  | c2 d4 cd ee dc BA G2  | \
w:  mez   SAZ  |  Ay lar  *  *  ge *  *  *  çer   | 
A_1/4B =c4 _BA AG2B AG FE  | 
w:  ha *  ber  *  *  ge *  *  lir   | 
D2 FG A_B AG F3G FE ED  | D3E F2 G2 A2 B2 c2 d2  | 
w:  *  yâr  *  *  *  *  *  *  *  gel  |  mez   SAZ  | 
c2 d4 cd ee dc BA G2  | A_1/4B =c4 _BA AG2B AG FE  | 
w:  Ay lar  *  *  ge *  *  *  çer   |  ha *  ber  *  *  ge *  *  lir   | 
D2 FG A_B AG F3G FE ED  | D6 |
w:  *  yâr  *  *  *  *  *  *  *  gel  |  mez    | 


